contributed-vectors/freebloks.svg

<svg width="192" height="192" version="1.1" viewBox="0 0 192 192" xmlns="http://www.w3.org/2000/svg">
 <rect x="20" y="20" width="152" height="152" rx="9.9346" opacity=".63" style="fill:#d3b69a;opacity:1"/>
 <rect x="32" y="32" width="128" height="128" style="fill:#8e6f60;paint-order:stroke fill markers"/>
 <path d="m32 32v32h16v16h16v-16h16v-16h-32v-16z" style="fill:#f9de81;paint-order:stroke fill markers;stroke-width:1.3333"/>
 <path d="m80 32v16h16v32h16v-32h16v-16z" style="fill:#f9de81;paint-order:stroke fill markers;stroke-width:1.3333"/>
 <path d="m112 112v-32h-16v-16h-16v16h-16v16h32v16z" style="fill:#728dbe;paint-order:stroke fill markers;stroke-width:1.3333"/>
 <path d="m48 96v32h-16v32h16v-16h16v-48z" style="fill:#728dbe;paint-order:stroke fill markers;stroke-width:1.3333"/>
 <path d="m80 112v32h-16v16h32v-16h16v-16h-16v-16z" style="fill:#98dc9a;paint-order:stroke fill markers;stroke-width:1.3333"/>
 <rect x="112" y="80" width="16" height="32" style="fill:#ff837d;paint-order:stroke fill markers;stroke-width:1.3333"/>
 <path d="m144 32v32h-16v16h16v16h16v-64z" style="fill:#ff837d;paint-order:stroke fill markers;stroke-width:1.3333"/>
 <path d="m112 112v16h16v16h16v16h16v-32h-16v-16h-16z" style="fill:#98dc9a;paint-order:stroke fill markers;stroke-width:1.3333"/>
 <path d="m46 32v14h-14v2h14v14h-14v2h14v14h-14v2h14v14h-14v2h14v14h-14v2h14v14h-14v2h14v14h-14v2h14v14h-14v2h14 2 14 2 14 2 14 2 14 2 14 2 14 2 14 2v-2-14-2-14-2-14-2-14-2-14-2-14-2-14-2-14h-2v14h-14v-14h-2v14h-14v-14h-2v14h-14v-14h-2v14h-14v-14h-2v14h-14v-14h-2v14h-14v-14h-2v14h-14v-14h-2zm2 16h14v14h-14v-14zm16 0h14v14h-14v-14zm16 0h14v14h-14v-14zm16 0h14v14h-14v-14zm16 0h14v14h-14v-14zm16 0h14v14h-14v-14zm16 0h14v14h-14v-14zm-96 16h14v14h-14v-14zm16 0h14v14h-14v-14zm16 0h14v14h-14v-14zm16 0h14v14h-14v-14zm16 0h14v14h-14v-14zm16 0h14v14h-14v-14zm16 0h14v14h-14v-14zm-96 16h14v14h-14v-14zm16 0h14v14h-14v-14zm16 0h14v14h-14v-14zm16 0h14v14h-14v-14zm16 0h14v14h-14v-14zm16 0h14v14h-14v-14zm16 0h14v14h-14v-14zm-96 16h14v14h-14v-14zm16 0h14v14h-14v-14zm16 0h14v14h-14v-14zm16 0h14v14h-14v-14zm16 0h14v14h-14v-14zm16 0h14v14h-14v-14zm16 0h14v14h-14v-14zm-96 16h14v14h-14v-14zm16 0h14v14h-14v-14zm16 0h14v14h-14v-14zm16 0h14v14h-14v-14zm16 0h14v14h-14v-14zm16 0h14v14h-14v-14zm16 0h14v14h-14v-14zm-96 16h14v14h-14v-14zm16 0h14v14h-14v-14zm16 0h14v14h-14v-14zm16 0h14v14h-14v-14zm16 0h14v14h-14v-14zm16 0h14v14h-14v-14zm16 0h14v14h-14v-14zm-96 16h14v14h-14v-14zm16 0h14v14h-14v-14zm16 0h14v14h-14v-14zm16 0h14v14h-14v-14zm16 0h14v14h-14v-14zm16 0h14v14h-14v-14zm16 0h14v14h-14v-14z" style="opacity:.25;paint-order:stroke fill markers;stroke-width:.70711"/>
</svg>

<svg xmlns="http://www.w3.org/2000/svg" width="192" height="192"><rect width="152" height="152" x="20" y="20" opacity=".63" rx="9.935" style="fill:#d3b69a;opacity:1"/><path d="M32 32h128v128H32z" style="fill:#8e6f60;paint-order:stroke fill markers"/><path d="M32 32v32h16v16h16V64h16V48H48V32zM80 32v16h16v32h16V48h16V32z" style="fill:#f9de81;paint-order:stroke fill markers;stroke-width:1.3333"/><path d="M112 112V80H96V64H80v16H64v16h32v16zM48 96v32H32v32h16v-16h16V96z" style="fill:#728dbe;paint-order:stroke fill markers;stroke-width:1.3333"/><path d="M80 112v32H64v16h32v-16h16v-16H96v-16z" style="fill:#98dc9a;paint-order:stroke fill markers;stroke-width:1.3333"/><path d="M112 80h16v32h-16zM144 32v32h-16v16h16v16h16V32z" style="fill:#ff837d;paint-order:stroke fill markers;stroke-width:1.3333"/><path d="M112 112v16h16v16h16v16h16v-32h-16v-16h-16z" style="fill:#98dc9a;paint-order:stroke fill markers;stroke-width:1.3333"/><path d="M46 32v14H32v2h14v14H32v2h14v14H32v2h14v14H32v2h14v14H32v2h14v14H32v2h14v14H32v2h14v14H32v2h128V32h-2v14h-14V32h-2v14h-14V32h-2v14h-14V32h-2v14H96V32h-2v14H80V32h-2v14H64V32h-2v14H48V32h-2zm2 16h14v14H48V48zm16 0h14v14H64V48zm16 0h14v14H80V48zm16 0h14v14H96V48zm16 0h14v14h-14V48zm16 0h14v14h-14V48zm16 0h14v14h-14V48zM48 64h14v14H48V64zm16 0h14v14H64V64zm16 0h14v14H80V64zm16 0h14v14H96V64zm16 0h14v14h-14V64zm16 0h14v14h-14V64zm16 0h14v14h-14V64zM48 80h14v14H48V80zm16 0h14v14H64V80zm16 0h14v14H80V80zm16 0h14v14H96V80zm16 0h14v14h-14V80zm16 0h14v14h-14V80zm16 0h14v14h-14V80zM48 96h14v14H48V96zm16 0h14v14H64V96zm16 0h14v14H80V96zm16 0h14v14H96V96zm16 0h14v14h-14V96zm16 0h14v14h-14V96zm16 0h14v14h-14V96zm-96 16h14v14H48v-14zm16 0h14v14H64v-14zm16 0h14v14H80v-14zm16 0h14v14H96v-14zm16 0h14v14h-14v-14zm16 0h14v14h-14v-14zm16 0h14v14h-14v-14zm-96 16h14v14H48v-14zm16 0h14v14H64v-14zm16 0h14v14H80v-14zm16 0h14v14H96v-14zm16 0h14v14h-14v-14zm16 0h14v14h-14v-14zm16 0h14v14h-14v-14zm-96 16h14v14H48v-14zm16 0h14v14H64v-14zm16 0h14v14H80v-14zm16 0h14v14H96v-14zm16 0h14v14h-14v-14zm16 0h14v14h-14v-14zm16 0h14v14h-14v-14z" style="opacity:.25;paint-order:stroke fill markers;stroke-width:.70711"/></svg>
